build/assets/img/social-media-2.svg

<svg width="44" height="44" viewBox="0 0 44 44" fill="none" xmlns="http://www.w3.org/2000/svg">
<path d="M40.4516 11.3548H39.0323V7.09677C39.0323 3.18361 35.8486 0 31.9355 0H23.4194C19.5062 0 16.3226 3.18361 16.3226 7.09677C16.3226 7.83839 16.4375 8.55303 16.6497 9.22581H12.0645C10.0845 9.22581 8.29329 10.0426 7.00523 11.3548H3.54839C1.59181 11.3548 0 12.9466 0 14.9032V40.4516C0 42.4082 1.59181 44 3.54839 44H17.7419C19.6985 44 21.2903 42.4082 21.2903 40.4516V23.3832C21.78 23.3342 22.2548 23.2355 22.7097 23.0922V40.4516C22.7097 42.4082 24.3015 44 26.2581 44H40.4516C42.4082 44 44 42.4082 44 40.4516V14.9032C44 12.9466 42.4082 11.3548 40.4516 11.3548ZM23.4194 1.41935H31.9355C35.0659 1.41935 37.6129 3.96639 37.6129 7.09677V18.0045L32.9638 12.7742H23.4194C20.289 12.7742 17.7419 10.2272 17.7419 7.09677C17.7419 3.96639 20.289 1.41935 23.4194 1.41935ZM33.5883 15.6129H27.637C27.5894 15.1282 27.4872 14.6548 27.3417 14.1935H32.3265L33.5883 15.6129ZM1.41935 14.9032C1.41935 13.7294 2.37458 12.7742 3.54839 12.7742H5.92794C5.43329 13.6258 5.10613 14.586 5.00394 15.6129H1.41935V14.9032ZM19.871 40.4516C19.871 41.6254 18.9157 42.5806 17.7419 42.5806H3.54839C2.37458 42.5806 1.41935 41.6254 1.41935 40.4516V38.3226H19.871V40.4516ZM19.871 36.9032H1.41935V17.0323H4.96774V30.9632L11.6735 23.4194H19.871V36.9032ZM20.5806 22H11.0362L6.3871 27.2303V16.3226C6.3871 13.1922 8.93413 10.6452 12.0645 10.6452H17.2828C18.5119 12.7628 20.7992 14.1935 23.4194 14.1935H25.8365C26.1112 14.8685 26.2581 15.581 26.2581 16.3226C26.2581 19.453 23.711 22 20.5806 22ZM42.5806 40.4516C42.5806 41.6254 41.6254 42.5806 40.4516 42.5806H26.2581C25.0843 42.5806 24.129 41.6254 24.129 40.4516V38.3226H42.5806V40.4516ZM42.5806 36.9032H24.129V22.4592C26.053 21.3421 27.4099 19.3529 27.6412 17.0323H34.8494L39.0323 21.7374V17.0323H42.5806V36.9032ZM42.5806 15.6129H39.0323V12.7742H40.4516C41.6254 12.7742 42.5806 13.7294 42.5806 14.9032V15.6129Z" fill="white"/>
<path d="M36.9034 39.7419H29.8066V41.1613H36.9034V39.7419Z" fill="white"/>
<path d="M33.3556 9.22584C34.5294 9.22584 35.4846 8.27061 35.4846 7.09681C35.4846 5.923 34.5294 4.96777 33.3556 4.96777C32.1818 4.96777 31.2266 5.923 31.2266 7.09681C31.2266 8.27061 32.1818 9.22584 33.3556 9.22584ZM33.3556 6.38713C33.7466 6.38713 34.0653 6.70577 34.0653 7.09681C34.0653 7.48784 33.7466 7.80648 33.3556 7.80648C32.9646 7.80648 32.6459 7.48784 32.6459 7.09681C32.6459 6.70577 32.9646 6.38713 33.3556 6.38713Z" fill="white"/>
<path d="M27.6779 9.22584C28.8517 9.22584 29.8069 8.27061 29.8069 7.09681C29.8069 5.923 28.8517 4.96777 27.6779 4.96777C26.5041 4.96777 25.5488 5.923 25.5488 7.09681C25.5488 8.27061 26.5041 9.22584 27.6779 9.22584ZM27.6779 6.38713C28.0689 6.38713 28.3875 6.70577 28.3875 7.09681C28.3875 7.48784 28.0689 7.80648 27.6779 7.80648C27.2868 7.80648 26.9682 7.48784 26.9682 7.09681C26.9682 6.70577 27.2868 6.38713 27.6779 6.38713Z" fill="white"/>
<path d="M22.0001 9.22584C23.1739 9.22584 24.1292 8.27061 24.1292 7.09681C24.1292 5.923 23.1739 4.96777 22.0001 4.96777C20.8263 4.96777 19.8711 5.923 19.8711 7.09681C19.8711 8.27061 20.8263 9.22584 22.0001 9.22584ZM22.0001 6.38713C22.3912 6.38713 22.7098 6.70577 22.7098 7.09681C22.7098 7.48784 22.3912 7.80648 22.0001 7.80648C21.6091 7.80648 21.2904 7.48784 21.2904 7.09681C21.2904 6.70577 21.6091 6.38713 22.0001 6.38713Z" fill="white"/>
<path d="M14.1944 39.7419H7.09766V41.1613H14.1944V39.7419Z" fill="white"/>
<path d="M10.6447 14.1936C9.47085 14.1936 8.51562 15.1488 8.51562 16.3226C8.51562 17.4964 9.47085 18.4517 10.6447 18.4517C11.8185 18.4517 12.7737 17.4964 12.7737 16.3226C12.7737 15.1488 11.8185 14.1936 10.6447 14.1936ZM10.6447 17.0323C10.2536 17.0323 9.93498 16.7137 9.93498 16.3226C9.93498 15.9316 10.2536 15.613 10.6447 15.613C11.0357 15.613 11.3543 15.9316 11.3543 16.3226C11.3543 16.7137 11.0357 17.0323 10.6447 17.0323Z" fill="white"/>
<path d="M16.3224 14.1936C15.1486 14.1936 14.1934 15.1488 14.1934 16.3226C14.1934 17.4964 15.1486 18.4517 16.3224 18.4517C17.4962 18.4517 18.4514 17.4964 18.4514 16.3226C18.4514 15.1488 17.4962 14.1936 16.3224 14.1936ZM16.3224 17.0323C15.9314 17.0323 15.6127 16.7137 15.6127 16.3226C15.6127 15.9316 15.9314 15.613 16.3224 15.613C16.7134 15.613 17.0321 15.9316 17.0321 16.3226C17.0321 16.7137 16.7134 17.0323 16.3224 17.0323Z" fill="white"/>
<path d="M22.0001 14.1936C20.8263 14.1936 19.8711 15.1488 19.8711 16.3226C19.8711 17.4964 20.8263 18.4517 22.0001 18.4517C23.1739 18.4517 24.1292 17.4964 24.1292 16.3226C24.1292 15.1488 23.1739 14.1936 22.0001 14.1936ZM22.0001 17.0323C21.6091 17.0323 21.2904 16.7137 21.2904 16.3226C21.2904 15.9316 21.6091 15.613 22.0001 15.613C22.3912 15.613 22.7098 15.9316 22.7098 16.3226C22.7098 16.7137 22.3912 17.0323 22.0001 17.0323Z" fill="white"/>
</svg>

<svg width="44" height="44" fill="none" xmlns="http://www.w3.org/2000/svg"><path d="M40.452 11.355h-1.42V7.097A7.105 7.105 0 0031.936 0h-8.517a7.105 7.105 0 00-7.096 7.097c0 .741.114 1.456.327 2.129h-4.585a7.07 7.07 0 00-5.06 2.129H3.548A3.552 3.552 0 000 14.903v25.549A3.552 3.552 0 003.548 44h14.194a3.552 3.552 0 003.548-3.548V23.383a7.06 7.06 0 001.42-.29v17.359A3.552 3.552 0 0026.258 44h14.194A3.552 3.552 0 0044 40.452V14.903a3.552 3.552 0 00-3.548-3.548zM23.419 1.419h8.517a5.684 5.684 0 015.677 5.678v10.908l-4.65-5.23H23.42a5.684 5.684 0 01-5.677-5.678 5.684 5.684 0 015.677-5.678zm10.17 14.194h-5.952a6.982 6.982 0 00-.295-1.42h4.985l1.261 1.42zm-32.17-.71c0-1.174.956-2.129 2.13-2.129h2.379a7.03 7.03 0 00-.924 2.839H1.419v-.71zm18.452 25.549a2.132 2.132 0 01-2.13 2.129H3.549a2.132 2.132 0 01-2.129-2.13v-2.128h18.452v2.129zm0-3.549H1.419v-19.87h3.549v13.93l6.706-7.544h8.197v13.484zM20.581 22h-9.545l-4.649 5.23V16.323a5.684 5.684 0 015.678-5.678h5.218a7.094 7.094 0 006.136 3.549h2.418a5.62 5.62 0 01.421 2.129A5.684 5.684 0 0120.581 22zm22 18.452a2.132 2.132 0 01-2.13 2.129H26.259a2.132 2.132 0 01-2.129-2.13v-2.128h18.452v2.129zm0-3.549H24.129V22.46a7.101 7.101 0 003.512-5.427h7.208l4.183 4.705v-4.705h3.549v19.871zm0-21.29h-3.549v-2.839h1.42c1.173 0 2.129.955 2.129 2.13v.709z" fill="#fff"/><path d="M36.903 39.742h-7.096v1.42h7.096v-1.42zM33.356 9.226a2.132 2.132 0 002.129-2.13 2.132 2.132 0 00-2.13-2.128 2.132 2.132 0 00-2.128 2.129c0 1.174.955 2.129 2.129 2.129zm0-2.839a.71.71 0 010 1.42.71.71 0 010-1.42zm-5.678 2.839a2.132 2.132 0 002.129-2.13 2.132 2.132 0 00-2.13-2.128c-1.173 0-2.128.955-2.128 2.129s.955 2.129 2.129 2.129zm0-2.839a.71.71 0 010 1.42.71.71 0 010-1.42zM22 9.226c1.174 0 2.13-.955 2.13-2.13A2.132 2.132 0 0022 4.969a2.132 2.132 0 00-2.129 2.129c0 1.174.955 2.129 2.13 2.129zm0-2.839a.71.71 0 010 1.42.71.71 0 010-1.42zm-7.806 33.355H7.098v1.42h7.096v-1.42zm-3.549-25.548c-1.174 0-2.13.955-2.13 2.129 0 1.173.956 2.129 2.13 2.129a2.132 2.132 0 002.129-2.13 2.132 2.132 0 00-2.13-2.128zm0 2.838a.71.71 0 010-1.419.71.71 0 010 1.42zm5.677-2.838a2.132 2.132 0 00-2.129 2.129c0 1.173.956 2.129 2.13 2.129a2.132 2.132 0 002.128-2.13 2.132 2.132 0 00-2.129-2.128zm0 2.838a.71.71 0 010-1.419.71.71 0 010 1.42zM22 14.194a2.132 2.132 0 00-2.129 2.129c0 1.173.955 2.129 2.13 2.129a2.132 2.132 0 002.128-2.13A2.132 2.132 0 0022 14.195zm0 2.838a.71.71 0 010-1.419.71.71 0 010 1.42z" fill="#fff"/></svg>
